images/icons/colored-logo-5.svg

<svg width="100" height="51" viewBox="0 0 100 51" fill="none" xmlns="http://www.w3.org/2000/svg">
<path d="M2.58521 29.5166H5.41812V43.4073H2.58521V29.5166Z" fill="#394149"/>
<path d="M7.06126 38.648C7.05939 37.6503 7.35354 36.6744 7.90649 35.8439C8.45944 35.0134 9.24633 34.3656 10.1676 33.9825C11.0888 33.5994 12.103 33.4982 13.0818 33.6917C14.0606 33.8852 14.96 34.3647 15.6661 35.0696C16.3723 35.7744 16.8535 36.6729 17.0488 37.6513C17.2442 38.6297 17.1449 39.6441 16.7635 40.5661C16.3821 41.488 15.7358 42.2761 14.9063 42.8306C14.0769 43.3852 13.1016 43.6811 12.1039 43.6811C11.4403 43.6887 10.782 43.5638 10.1674 43.3136C9.55281 43.0635 8.99432 42.6932 8.52468 42.2244C8.05504 41.7557 7.68369 41.1979 7.4324 40.5837C7.18111 39.9696 7.05493 39.3115 7.06126 38.648ZM14.2946 38.648C14.2835 38.2173 14.1456 37.7994 13.8982 37.4467C13.6508 37.0939 13.3049 36.822 12.9037 36.6648C12.5025 36.5076 12.0639 36.4723 11.6428 36.5631C11.2216 36.6539 10.8366 36.8669 10.5358 37.1754C10.2351 37.4839 10.032 37.8743 9.95193 38.2977C9.87188 38.721 9.91846 39.1586 10.0858 39.5556C10.2532 39.9526 10.5339 40.2915 10.8928 40.5298C11.2518 40.7681 11.673 40.8953 12.1039 40.8954C12.3986 40.9037 12.6919 40.8508 12.9652 40.74C13.2385 40.6292 13.4859 40.463 13.6918 40.2518C13.8976 40.0406 14.0575 39.7891 14.1612 39.5131C14.265 39.237 14.3104 38.9425 14.2946 38.648Z" fill="#394149"/>
<path d="M28.5345 33.8885V42.9349C28.5345 46.1361 26.0321 47.4865 23.5014 47.4865C22.6115 47.5527 21.7205 47.3727 20.926 46.9663C20.1315 46.5599 19.4642 45.9427 18.9971 45.1824L21.4334 43.7754C21.6267 44.165 21.9326 44.4877 22.3114 44.7015C22.6902 44.9153 23.1245 45.0105 23.5581 44.9746C23.8433 45.0222 24.1357 45.0036 24.4127 44.9202C24.6897 44.8369 24.9438 44.6911 25.1555 44.494C25.3671 44.2969 25.5307 44.0538 25.6336 43.7835C25.7365 43.5132 25.7759 43.2229 25.7488 42.9349V42.0567C25.4158 42.4665 24.9908 42.792 24.5085 43.0069C24.0262 43.2218 23.5 43.3201 22.9726 43.2938C21.6903 43.2938 20.4606 42.7844 19.5538 41.8777C18.6471 40.971 18.1377 39.7412 18.1377 38.4589C18.1377 37.1766 18.6471 35.9469 19.5538 35.0402C20.4606 34.1335 21.6903 33.6241 22.9726 33.6241C23.4997 33.6 24.0251 33.6993 24.5071 33.914C24.9891 34.1288 25.4143 34.4531 25.7488 34.8611V33.9168L28.5345 33.8885ZM25.7488 38.4589C25.7677 37.9997 25.6487 37.5453 25.4073 37.1541C25.1658 36.763 24.8129 36.453 24.3939 36.2641C23.9749 36.0751 23.5089 36.0158 23.0559 36.0938C22.6029 36.1717 22.1836 36.3834 21.8519 36.7015C21.5201 37.0197 21.2911 37.4298 21.1943 37.8791C21.0974 38.3284 21.1372 38.7965 21.3085 39.223C21.4798 39.6496 21.7747 40.0151 22.1554 40.2727C22.5361 40.5304 22.9851 40.6682 23.4447 40.6686C23.7448 40.6898 24.0459 40.648 24.3287 40.5457C24.6116 40.4434 24.8699 40.2831 25.087 40.0749C25.304 39.8667 25.4751 39.6153 25.5891 39.337C25.7031 39.0587 25.7575 38.7596 25.7488 38.4589Z" fill="#394149"/>
<path d="M30.1682 38.648C30.1663 37.6503 30.4605 36.6744 31.0134 35.8439C31.5664 35.0134 32.3533 34.3656 33.2745 33.9825C34.1957 33.5994 35.2099 33.4982 36.1887 33.6917C37.1675 33.8852 38.0669 34.3647 38.7731 35.0696C39.4792 35.7744 39.9604 36.6729 40.1558 37.6513C40.3511 38.6297 40.2518 39.6441 39.8704 40.5661C39.489 41.488 38.8427 42.2761 38.0133 42.8306C37.1838 43.3852 36.2085 43.6811 35.2108 43.6811C34.5473 43.6887 33.8889 43.5638 33.2743 43.3136C32.6597 43.0635 32.1012 42.6932 31.6316 42.2244C31.162 41.7557 30.7906 41.1979 30.5393 40.5837C30.288 39.9696 30.1618 39.3115 30.1682 38.648ZM37.4016 38.648C37.3904 38.2173 37.2525 37.7994 37.0051 37.4467C36.7577 37.0939 36.4118 36.822 36.0106 36.6648C35.6095 36.5076 35.1709 36.4723 34.7497 36.5631C34.3285 36.6539 33.9435 36.8669 33.6427 37.1754C33.342 37.4839 33.1389 37.8743 33.0588 38.2977C32.9788 38.721 33.0254 39.1586 33.1927 39.5556C33.3601 39.9526 33.6408 40.2915 33.9997 40.5298C34.3587 40.7681 34.7799 40.8953 35.2108 40.8954C35.504 40.901 35.7952 40.8462 36.0663 40.7342C36.3373 40.6222 36.5824 40.4556 36.7862 40.2447C36.99 40.0339 37.1481 39.7832 37.2508 39.5085C37.3534 39.2338 37.3983 38.9408 37.3827 38.648H37.4016Z" fill="#394149"/>
<path d="M41.5662 31.339C41.5662 30.9991 41.667 30.6668 41.8558 30.3842C42.0447 30.1016 42.3131 29.8813 42.6271 29.7512C42.9412 29.6211 43.2867 29.5871 43.6201 29.6534C43.9535 29.7197 44.2597 29.8834 44.5001 30.1237C44.7405 30.3641 44.9041 30.6703 44.9704 31.0037C45.0368 31.3371 45.0027 31.6827 44.8727 31.9967C44.7426 32.3107 44.5223 32.5792 44.2397 32.768C43.957 32.9568 43.6248 33.0576 43.2848 33.0576C42.8298 33.0552 42.3941 32.8733 42.0723 32.5515C41.7505 32.2298 41.5687 31.7941 41.5662 31.339ZM41.8589 33.8886H44.6918V43.4072H41.8589V33.8886Z" fill="#394149"/>
<path d="M57.0431 38.648C57.0774 39.2772 56.987 39.907 56.777 40.5011C56.5669 41.0952 56.2415 41.6419 55.8193 42.1097C55.3971 42.5775 54.8866 42.9572 54.3171 43.2269C53.7476 43.4966 53.1304 43.651 52.501 43.6812C51.9726 43.7065 51.445 43.6157 50.9556 43.415C50.4661 43.2143 50.0266 42.9087 49.6681 42.5197V47.2412H46.8352V33.8887H49.6681V34.7858C50.0266 34.3968 50.4661 34.0912 50.9556 33.8905C51.445 33.6898 51.9726 33.599 52.501 33.6243C53.1296 33.6545 53.746 33.8086 54.3148 34.0777C54.8837 34.3469 55.3938 34.7257 55.8158 35.1925C56.2379 35.6593 56.5635 36.2048 56.7741 36.7978C56.9848 37.3908 57.0762 38.0196 57.0431 38.648ZM54.2102 38.648C54.199 38.2048 54.058 37.7746 53.8047 37.4107C53.5514 37.0469 53.197 36.7652 52.7853 36.6008C52.3736 36.4363 51.9226 36.3962 51.4884 36.4855C51.0541 36.5747 50.6555 36.7894 50.342 37.1029C50.0285 37.4164 49.8139 37.8149 49.7246 38.2492C49.6354 38.6835 49.6755 39.1344 49.8399 39.5461C50.0044 39.9578 50.286 40.3123 50.6499 40.5655C51.0138 40.8188 51.444 40.9598 51.8872 40.971C52.1965 40.9907 52.5064 40.9439 52.7962 40.8339C53.0859 40.7238 53.3487 40.553 53.567 40.333C53.7852 40.1129 53.9539 39.8487 54.0616 39.5581C54.1692 39.2675 54.2135 38.9572 54.1913 38.648H54.2102Z" fill="#394149"/>
<path d="M65.863 40.5553C65.863 42.7461 63.9744 43.6809 61.8969 43.6809C61.067 43.7544 60.2341 43.5778 59.5054 43.1739C58.7768 42.77 58.1856 42.1573 57.8081 41.4146L60.2822 40.0076C60.3826 40.3511 60.5976 40.6499 60.8913 40.8543C61.1851 41.0587 61.5399 41.1565 61.8969 41.1313C62.5863 41.1313 62.9262 40.9141 62.9262 40.5364C62.9262 39.4882 58.2047 40.0454 58.2047 36.7592C58.2047 34.6817 59.9611 33.6335 61.9819 33.6335C62.7276 33.6109 63.4658 33.788 64.12 34.1467C64.7742 34.5053 65.3205 35.0324 65.7025 35.6732L63.219 36.9764C63.1093 36.727 62.9295 36.5148 62.7015 36.3656C62.4735 36.2164 62.2072 36.1366 61.9347 36.1359C61.4437 36.1359 61.1415 36.3248 61.1415 36.6742C61.1793 37.7601 65.863 37.033 65.863 40.5553Z" fill="#394149"/>
<path d="M76.2881 33.8887V43.4073H73.4551V42.5197C73.1256 42.9141 72.7074 43.2249 72.2347 43.4268C71.7621 43.6287 71.2483 43.7158 70.7355 43.6812C68.8469 43.6812 67.1755 42.3119 67.1755 39.734V33.8887H70.0084V39.3185C69.9835 39.5499 70.0105 39.7839 70.0873 40.0036C70.1641 40.2233 70.2888 40.4231 70.4525 40.5886C70.6161 40.7541 70.8146 40.881 71.0334 40.9602C71.2522 41.0395 71.486 41.0689 71.7176 41.0466C72.7564 41.0466 73.4835 40.4422 73.4835 39.0919V33.8887H76.2881Z" fill="#394149"/>
<path d="M92.6622 37.5714V43.4072H89.8292V37.817C89.8292 36.8727 89.3665 36.2494 88.46 36.2494C87.5535 36.2494 86.968 36.9199 86.968 38.0436V43.4072H84.1351V37.817C84.1351 36.8727 83.6818 36.2494 82.7658 36.2494C81.8499 36.2494 81.2833 36.9199 81.2833 38.0436V43.4072H78.4504V33.8887H81.2833V34.7669C81.5794 34.379 81.9677 34.0713 82.413 33.8718C82.8583 33.6722 83.3464 33.5871 83.8329 33.6243C84.3215 33.6005 84.808 33.7038 85.2448 33.9238C85.6817 34.1439 86.0541 34.4734 86.3259 34.8802C86.6419 34.4549 87.0606 34.1166 87.5428 33.897C88.025 33.6774 88.555 33.5835 89.0832 33.6243C91.2363 33.6243 92.6622 35.1918 92.6622 37.5714Z" fill="#394149"/>
<path d="M95.0799 33.8321C96.2481 33.8321 97.1951 32.885 97.1951 31.7168C97.1951 30.5486 96.2481 29.6016 95.0799 29.6016C93.9117 29.6016 92.9646 30.5486 92.9646 31.7168C92.9646 32.885 93.9117 33.8321 95.0799 33.8321Z" fill="#394149"/>
<path d="M34.6443 22.3115C40.1151 22.3115 44.55 17.8765 44.55 12.4057C44.55 6.93496 40.1151 2.5 34.6443 2.5C29.1735 2.5 24.7385 6.93496 24.7385 12.4057C24.7385 17.8765 29.1735 22.3115 34.6443 22.3115Z" fill="#394149"/>
<path d="M56.7881 22.3115C62.2589 22.3115 66.6938 17.8765 66.6938 12.4057C66.6938 6.93496 62.2589 2.5 56.7881 2.5C51.3173 2.5 46.8823 6.93496 46.8823 12.4057C46.8823 17.8765 51.3173 22.3115 56.7881 22.3115Z" fill="#394149"/>
<path d="M22.406 2.5H2.604V22.302H22.406V2.5Z" fill="#394149"/>
</svg>

<svg width="100" height="51" fill="none" xmlns="http://www.w3.org/2000/svg"><path d="M2.585 29.517h2.833v13.89H2.585v-13.89ZM7.061 38.648a5.043 5.043 0 1 1 5.043 5.033 4.984 4.984 0 0 1-5.043-5.033Zm7.234 0a2.19 2.19 0 1 0-2.191 2.247 2.133 2.133 0 0 0 2.19-2.247Z" fill="#394149"/><path d="M28.535 33.889v9.046c0 3.201-2.503 4.551-5.034 4.551a4.863 4.863 0 0 1-4.504-2.304l2.436-1.407a2.172 2.172 0 0 0 2.125 1.2 1.887 1.887 0 0 0 2.19-2.04v-.878a3.36 3.36 0 0 1-2.775 1.237 4.835 4.835 0 0 1 0-9.67 3.39 3.39 0 0 1 2.776 1.237v-.944l2.786-.029Zm-2.786 4.57a2.304 2.304 0 1 0-2.304 2.21 2.153 2.153 0 0 0 2.304-2.21ZM30.168 38.648a5.043 5.043 0 1 1 5.043 5.033 4.985 4.985 0 0 1-5.043-5.033Zm7.234 0a2.191 2.191 0 1 0-2.191 2.247 2.134 2.134 0 0 0 2.172-2.247h.019ZM41.566 31.339a1.719 1.719 0 1 1 1.719 1.719 1.728 1.728 0 0 1-1.719-1.719Zm.293 2.55h2.833v9.518h-2.833V33.89ZM57.043 38.648a4.78 4.78 0 0 1-4.542 5.033 3.617 3.617 0 0 1-2.833-1.161v4.721h-2.833V33.89h2.833v.897a3.617 3.617 0 0 1 2.833-1.162 4.777 4.777 0 0 1 4.542 5.024Zm-2.833 0a2.266 2.266 0 1 0-2.323 2.323 2.172 2.172 0 0 0 2.304-2.323h.02ZM65.863 40.555c0 2.191-1.889 3.126-3.966 3.126a4.174 4.174 0 0 1-4.089-2.266l2.474-1.407a1.567 1.567 0 0 0 1.615 1.123c.69 0 1.03-.217 1.03-.595 0-1.048-4.722-.49-4.722-3.777 0-2.077 1.756-3.126 3.777-3.126a4.183 4.183 0 0 1 3.72 2.04l-2.483 1.303a1.407 1.407 0 0 0-1.284-.84c-.491 0-.794.189-.794.538.038 1.086 4.722.359 4.722 3.881ZM76.288 33.889v9.518h-2.833v-.887a3.257 3.257 0 0 1-2.72 1.161c-1.888 0-3.56-1.37-3.56-3.947v-5.845h2.833v5.43a1.568 1.568 0 0 0 1.71 1.728c1.038 0 1.766-.605 1.766-1.955v-5.203h2.804ZM92.662 37.571v5.836H89.83v-5.59c0-.944-.462-1.568-1.369-1.568-.906 0-1.492.67-1.492 1.795v5.363h-2.833v-5.59c0-.944-.453-1.568-1.37-1.568-.915 0-1.482.67-1.482 1.795v5.363H78.45V33.89h2.833v.878a2.926 2.926 0 0 1 2.55-1.143 2.833 2.833 0 0 1 2.493 1.256 3.135 3.135 0 0 1 2.757-1.256c2.153 0 3.58 1.568 3.58 3.947ZM95.08 33.832a2.115 2.115 0 1 0 0-4.23 2.115 2.115 0 0 0 0 4.23ZM34.644 22.311c5.471 0 9.906-4.434 9.906-9.905 0-5.471-4.435-9.906-9.906-9.906-5.47 0-9.905 4.435-9.905 9.906 0 5.47 4.434 9.905 9.905 9.905ZM56.788 22.311c5.47 0 9.906-4.434 9.906-9.905 0-5.471-4.435-9.906-9.906-9.906-5.47 0-9.906 4.435-9.906 9.906 0 5.47 4.435 9.905 9.906 9.905ZM22.406 2.5H2.604v19.802h19.802V2.5Z" fill="#394149"/></svg>
